svg/UnitedNations-Flags/flag-kp.svg

<?xml version="1.0" encoding="UTF-8" standalone="no"?>
<svg height="256" id="svg4453" inkscape:output_extension="org.inkscape.output.svg.inkscape" inkscape:version="0.46" sodipodi:docname="Flag_of_North_Korea.svg" sodipodi:version="0.32" version="1.0" width="256" xmlns="http://www.w3.org/2000/svg" xmlns:cc="http://creativecommons.org/ns#" xmlns:dc="http://purl.org/dc/elements/1.1/" xmlns:inkscape="http://www.inkscape.org/namespaces/inkscape" xmlns:rdf="http://www.w3.org/1999/02/22-rdf-syntax-ns#" xmlns:sodipodi="http://sodipodi.sourceforge.net/DTD/sodipodi-0.dtd" xmlns:svg="http://www.w3.org/2000/svg">
  <metadata>
    <rdf:RDF xmlns:cc="http://web.resource.org/cc/" xmlns:dc="http://purl.org/dc/elements/1.1/" xmlns:rdf="http://www.w3.org/1999/02/22-rdf-syntax-ns#">
      <cc:Work rdf:about="">
        <dc:title></dc:title>
        <dc:description></dc:description>
        <dc:subject>
          <rdf:Bag>
            <rdf:li>unsorted</rdf:li>
          </rdf:Bag>
        </dc:subject>
        <dc:publisher>
          <cc:Agent rdf:about="http://www.openclipart.org/">
            <dc:title>Open Clip Art Library, Source: Wikimedia Commons, Source: Wikimedia Commons, Source: Wikimedia Commons, Source: Wikimedia Commons</dc:title>
          </cc:Agent>
        </dc:publisher>
        <dc:creator>
          <cc:Agent>
            <dc:title></dc:title>
          </cc:Agent>
        </dc:creator>
        <dc:rights>
          <cc:Agent>
            <dc:title></dc:title>
          </cc:Agent>
        </dc:rights>
        <dc:date></dc:date>
        <dc:format>image/svg+xml</dc:format>
        <dc:type rdf:resource="http://purl.org/dc/dcmitype/StillImage"/>
        <cc:license rdf:resource="http://en.wikipedia.org/wiki/Public_domain"/>
        <dc:language>en</dc:language>
      </cc:Work>
    </rdf:RDF>
  </metadata>
  <defs id="defs4466">
    <inkscape:perspective id="perspective4470" inkscape:persp3d-origin="720 : 240 : 1" inkscape:vp_x="0 : 360 : 1" inkscape:vp_y="0 : 1000 : 0" inkscape:vp_z="1440 : 360 : 1" sodipodi:type="inkscape:persp3d"/>
  </defs>
  <sodipodi:namedview bordercolor="#666666" borderopacity="1.0" gridtolerance="10.0" guidetolerance="10.0" id="base" inkscape:current-layer="svg4453" inkscape:cx="720" inkscape:cy="360" inkscape:pageopacity="0.0" inkscape:pageshadow="2" inkscape:window-height="711" inkscape:window-width="809" inkscape:window-x="41" inkscape:window-y="183" inkscape:zoom="0.38819444" objecttolerance="10.0" pagecolor="#ffffff" showgrid="false"/>
  <rect height="128" id="rect4455" style="fill:#034da2" width="256" x="0" y="64"/>
  <rect height="85.333336" id="rect4457" style="fill:#ffffff" width="256" x="0" y="85.333313"/>
  <rect height="78.222221" id="rect4459" style="fill:#ed1d25" width="256" x="0" y="88.888916"/>
  <circle cx="480" cy="360" id="circle4461" r="160" sodipodi:cx="480" sodipodi:cy="360" sodipodi:rx="160" sodipodi:ry="160" style="fill:#ffffff" transform="matrix(0.1777778,0,0,0.1777778,0,64)"/>
  <path d="M 85.333333,100.44444 L 91.519941,119.48487 L 111.54022,119.48487 L 95.343475,131.25249 L 101.53008,150.29291 L 85.333333,138.52529 L 69.136584,150.29291 L 75.323192,131.25249 L 59.126443,119.48487 L 79.146726,119.48487 L 85.333333,100.44444 z" id="path4463" style="fill:#ed1d25"/>
</svg>

<svg xmlns="http://www.w3.org/2000/svg" viewBox="0 0 256 256"><path fill="#034da2" d="m0 64h256v128h-256z"/><path fill="#fff" d="m0 85.33h256v85.33h-256z"/><path fill="#ed1d25" d="m0 88.89h256v78.22h-256z"/><circle cx="480" cy="360" r="160" transform="matrix(.17778 0 0 .17778 0 64)" fill="#fff"/><path d="m85.33 100.44l6.187 19.04h20.02l-16.197 11.768 6.187 19.04-16.197-11.768-16.197 11.768 6.187-19.04-16.197-11.768h20.02l6.187-19.04" fill="#ed1d25"/></svg>
